X:1
T:Dorset Four Hand Reel
L:1/4
M:4/4
I:linebreak $
K:G
V:1 treble nm="Voice" snm="Voice"
V:1
 B/A/ | G B d | c e c | G B d |$ B A A | G B d | c e c | G B d |$ B G G :| |: d | g g g/f/ | %12
 d d d/c/ | A3/2 B/ c |$ e d d | g g g/f/ | d d d/c/ | A A/B/ c | G2 G |] e2 | %20
